icons/chrome-dark.svg

<svg width="256" height="256" viewBox="0 0 256 256" fill="none" xmlns="http://www.w3.org/2000/svg">
<path d="M196 0H60C26.8629 0 0 26.8629 0 60V196C0 229.137 26.8629 256 60 256H196C229.137 256 256 229.137 256 196V60C256 26.8629 229.137 0 196 0Z" fill="#282828"/>
<g clip-path="url(#clip0_80_13)">
<path d="M127.5 171.23C151.662 171.23 171.25 151.643 171.25 127.48C171.25 103.318 151.662 83.7305 127.5 83.7305C103.338 83.7305 83.75 103.318 83.75 127.48C83.75 151.643 103.338 171.23 127.5 171.23Z" fill="white"/>
<path d="M127.5 83.7502H203.265C195.587 70.4479 184.543 59.4015 171.242 51.7215C157.941 44.0416 142.853 39.9989 127.494 40C112.135 40.0011 97.0476 44.0459 83.7479 51.7276C70.4481 59.4094 59.4053 70.4574 51.7297 83.7607L89.6121 149.375L89.646 149.366C85.7924 142.721 83.7588 135.177 83.7501 127.495C83.7415 119.813 85.7582 112.265 89.5969 105.611C93.4356 98.9569 98.9606 93.4325 105.615 89.5945C112.269 85.7566 119.818 83.7407 127.5 83.7502Z" fill="url(#paint0_linear_80_13)"/>
<path d="M127.5 162.136C146.629 162.136 162.135 146.629 162.135 127.5C162.135 108.372 146.629 92.8647 127.5 92.8647C108.371 92.8647 92.8646 108.372 92.8646 127.5C92.8646 146.629 108.371 162.136 127.5 162.136Z" fill="#1A73E8"/>
<path d="M165.385 149.385L127.503 215C142.861 215.002 157.95 210.96 171.251 203.281C184.553 195.603 195.598 184.557 203.276 171.255C210.955 157.954 214.995 142.865 214.993 127.506C214.99 112.147 210.944 97.0601 203.26 83.7612H127.496L127.487 83.7951C135.169 83.7803 142.719 85.791 149.376 89.6244C156.033 93.4578 161.562 98.9785 165.405 105.63C169.248 112.281 171.27 119.829 171.267 127.51C171.263 135.192 169.234 142.738 165.385 149.385Z" fill="url(#paint1_linear_80_13)"/>
<path d="M89.6147 149.386L51.7323 83.772C44.0509 97.072 40.0067 112.16 40.0061 127.519C40.0055 142.878 44.0487 157.966 51.729 171.266C59.4093 184.567 70.4561 195.611 83.7586 203.288C97.0611 210.965 112.15 215.004 127.509 215L165.391 149.386L165.367 149.361C161.539 156.021 156.022 161.554 149.374 165.402C142.726 169.251 135.18 171.279 127.498 171.281C119.816 171.284 112.269 169.261 105.618 165.417C98.9675 161.573 93.4474 156.044 89.6147 149.386Z" fill="url(#paint2_linear_80_13)"/>
</g>
<defs>
<linearGradient id="paint0_linear_80_13" x1="51.7297" y1="94.6877" x2="203.265" y2="94.6877" gradientUnits="userSpaceOnUse">
<stop stop-color="#D93025"/>
<stop offset="1" stop-color="#EA4335"/>
</linearGradient>
<linearGradient id="paint1_linear_80_13" x1="115.549" y1="213.83" x2="191.316" y2="82.5967" gradientUnits="userSpaceOnUse">
<stop stop-color="#FCC934"/>
<stop offset="1" stop-color="#FBBC04"/>
</linearGradient>
<linearGradient id="paint2_linear_80_13" x1="136.972" y1="209.537" x2="61.2045" y2="78.3032" gradientUnits="userSpaceOnUse">
<stop stop-color="#1E8E3E"/>
<stop offset="1" stop-color="#34A853"/>
</linearGradient>
<clipPath id="clip0_80_13">
<rect width="175" height="175" fill="white" transform="translate(40 40)"/>
</clipPath>
</defs>
</svg>

<svg xmlns="http://www.w3.org/2000/svg" width="256" height="256" fill="none"><path fill="#282828" d="M196 0H60C26.863 0 0 26.863 0 60v136c0 33.137 26.863 60 60 60h136c33.137 0 60-26.863 60-60V60c0-33.137-26.863-60-60-60"/><g clip-path="url(#clip0_80_13)"><path fill="#fff" d="M127.5 171.23c24.162 0 43.75-19.587 43.75-43.75 0-24.162-19.588-43.75-43.75-43.75s-43.75 19.588-43.75 43.75c0 24.163 19.588 43.75 43.75 43.75"/><path fill="url(#paint0_linear_80_13)" d="M127.5 83.75h75.765A87.48 87.48 0 0 0 127.494 40 87.48 87.48 0 0 0 51.73 83.76l37.882 65.615.034-.009A43.695 43.695 0 0 1 127.5 83.75"/><path fill="#1A73E8" d="M127.5 162.136c19.129 0 34.635-15.507 34.635-34.636 0-19.128-15.506-34.635-34.635-34.635S92.865 108.372 92.865 127.5c0 19.129 15.506 34.636 34.635 34.636"/><path fill="url(#paint1_linear_80_13)" d="M165.385 149.385 127.503 215A87.478 87.478 0 0 0 203.26 83.761h-75.764l-.009.034a43.695 43.695 0 0 1 37.898 65.59"/><path fill="url(#paint2_linear_80_13)" d="M89.615 149.386 51.732 83.772A87.478 87.478 0 0 0 127.51 215l37.882-65.614-.024-.025a43.69 43.69 0 0 1-37.869 21.92 43.69 43.69 0 0 1-37.883-21.895"/></g><defs><linearGradient id="paint0_linear_80_13" x1="51.73" x2="203.265" y1="94.688" y2="94.688" gradientUnits="userSpaceOnUse"><stop stop-color="#D93025"/><stop offset="1" stop-color="#EA4335"/></linearGradient><linearGradient id="paint1_linear_80_13" x1="115.549" x2="191.316" y1="213.83" y2="82.597" gradientUnits="userSpaceOnUse"><stop stop-color="#FCC934"/><stop offset="1" stop-color="#FBBC04"/></linearGradient><linearGradient id="paint2_linear_80_13" x1="136.972" x2="61.205" y1="209.537" y2="78.303" gradientUnits="userSpaceOnUse"><stop stop-color="#1E8E3E"/><stop offset="1" stop-color="#34A853"/></linearGradient><clipPath id="clip0_80_13"><path fill="#fff" d="M40 40h175v175H40z"/></clipPath></defs></svg>
